lg/apache-camel.svg

<svg viewBox="0 0 256 256" version="1.1" xmlns="http://www.w3.org/2000/svg" xmlns:xlink="http://www.w3.org/1999/xlink" preserveAspectRatio="xMidYMid" height="1em" width="1em">
  <defs>
    <circle id="a" cx="128" cy="128.00015" r="128"/>
    <linearGradient x1="-12.5638445%" y1="108.214456%" x2="101.304079%" y2="-1.96418442%" id="b">
      <stop stop-color="#F69923" offset="0%"/>
      <stop stop-color="#F79A23" offset="10.996%"/>
      <stop stop-color="#E97826" offset="94.502%"/>
    </linearGradient>
    <linearGradient x1="-12.5638445%" y1="108.214456%" x2="101.304079%" y2="-1.96418442%" id="d">
      <stop stop-color="#F69923" offset="0%"/>
      <stop stop-color="#F79A23" offset="8.0478%"/>
      <stop stop-color="#E97826" offset="41.874%"/>
    </linearGradient>
    <linearGradient x1="74.7241541%" y1="-3.0591512%" x2="6.6528419%" y2="100.065517%" id="e">
      <stop stop-color="#F6E423" offset="0%"/>
      <stop stop-color="#F79A23" offset="41.191%"/>
      <stop stop-color="#E97826" offset="73.271%"/>
    </linearGradient>
  </defs>
  <g>
    <mask id="c" fill="white">
      <use xlink:href="#a"/>
    </mask>
    <circle fill="url(#b)" fill-rule="nonzero" mask="url(#c)" cx="127.99429" cy="127.994289" r="123.110531"/>
    <path d="M128,256 C57.307552,256 0,198.692448 0,128 C0,57.307552 57.307552,0 128,0 C198.692448,0 256,57.307552 256,128 C256,198.692448 198.692448,256 128,256 Z M128,246.232047 C193.297756,246.232047 246.232047,193.297757 246.232047,128 C246.232047,62.7022434 193.297756,9.76795285 128,9.76795285 C62.7022433,9.76795285 9.76795287,62.7022434 9.76795287,128 C9.76795287,193.297757 62.7022433,246.232047 128,246.232047 Z" fill="url(#d)" fill-rule="nonzero" mask="url(#c)"/>
    <path d="M98.0436948,75.5167519 C96.2930127,75.5147828 94.5195279,75.5265976 92.7516355,75.578189 C90.6964457,75.6388385 87.9353199,76.2913715 84.7520108,77.3627207 C138.52721,118.196743 157.860212,191.86024 124.627063,255.876929 C125.755714,255.906269 126.875819,256 128.011618,256 C188.747721,256 239.504232,213.677309 252.620663,156.92871 C214.078718,111.750768 161.80794,75.6151104 98.043301,75.5166535 L98.0436948,75.5167519 Z" fill="url(#e)" fill-rule="nonzero" opacity="0.75" mask="url(#c)"/>
    <path d="M84.7520108,77.3677419 C66.8954703,83.3771585 32.8297703,104.545789 0.0790609054,132.810802 C2.56627958,200.145488 57.1072772,254.12351 124.627063,255.88195 C157.860212,191.865262 138.527998,118.201764 84.7520108,77.3677419 L84.7520108,77.3677419 Z" fill="#28170B" fill-rule="nonzero" opacity="0.75" mask="url(#c)"/>
    <path d="M128.747194,54.0045284 C117.762336,59.4999 128.747194,81.4705963 128.747194,81.4705963 C95.774179,108.954321 102.779988,155.899717 64.3117981,155.899717 C43.3414552,155.899717 22.069572,131.822923 0.0790609054,117.071683 C-0.204035781,120.550653 -0.706298828,124.044146 -0.706298828,127.596097 C-0.706298828,175.691144 25.5565753,217.52046 64.7133789,239.493314 C75.666062,238.113713 87.5520153,235.378866 95.7643696,229.900759 C138.909639,201.135938 149.621405,146.409798 167.250697,119.975669 C178.229669,103.483669 229.684993,104.914651 233.157489,97.9655396 C238.658746,86.9747963 222.166942,70.4994717 216.665685,70.4994717 L172.708205,70.4994717 C169.63691,70.4994717 164.811122,65.0431411 161.733941,65.0431411 L145.242137,65.0431411 C145.242137,65.0431411 137.935182,53.9580322 131.447893,53.5172018 C130.51799,53.4510871 129.61726,53.5697797 128.747194,54.0045284 Z" fill="#FFFFFF" fill-rule="nonzero" mask="url(#c)"/>
  </g>
</svg>

<svg viewBox="0 0 256 256" xmlns="http://www.w3.org/2000/svg" xmlns:xlink="http://www.w3.org/1999/xlink" preserveAspectRatio="xMidYMid" height="1em" width="1em">
  <defs>
    <linearGradient x1="-12.564%" y1="108.214%" x2="101.304%" y2="-1.964%" id="b">
      <stop stop-color="#F69923" offset="0%"/>
      <stop stop-color="#F79A23" offset="10.996%"/>
      <stop stop-color="#E97826" offset="94.502%"/>
    </linearGradient>
    <linearGradient x1="-12.564%" y1="108.214%" x2="101.304%" y2="-1.964%" id="d">
      <stop stop-color="#F69923" offset="0%"/>
      <stop stop-color="#F79A23" offset="8.048%"/>
      <stop stop-color="#E97826" offset="41.874%"/>
    </linearGradient>
    <linearGradient x1="74.724%" y1="-3.059%" x2="6.653%" y2="100.066%" id="e">
      <stop stop-color="#F6E423" offset="0%"/>
      <stop stop-color="#F79A23" offset="41.191%"/>
      <stop stop-color="#E97826" offset="73.271%"/>
    </linearGradient>
    <circle id="a" cx="128" cy="128" r="128"/>
  </defs>
  <mask id="c" fill="#fff">
    <use xlink:href="#a"/>
  </mask>
  <circle fill="url(#b)" mask="url(#c)" cx="127.994" cy="127.994" r="123.111"/>
  <path d="M128 256C57.308 256 0 198.692 0 128 0 57.308 57.308 0 128 0c70.692 0 128 57.308 128 128 0 70.692-57.308 128-128 128Zm0-9.768c65.298 0 118.232-52.934 118.232-118.232S193.298 9.768 128 9.768 9.768 62.702 9.768 128 62.702 246.232 128 246.232Z" fill="url(#d)" mask="url(#c)"/>
  <path d="M98.044 75.517c-1.751-.002-3.524.01-5.292.061-2.056.06-4.817.713-8 1.785 53.775 40.834 73.108 114.497 39.875 178.514 1.129.03 2.249.123 3.385.123 60.736 0 111.492-42.323 124.609-99.071-38.542-45.178-90.813-81.314-154.578-81.412Z" fill="url(#e)" opacity=".75" mask="url(#c)"/>
  <path d="M84.752 77.368C66.895 83.378 32.83 104.546.079 132.81c2.487 67.334 57.028 121.313 124.548 123.07 33.233-64.016 13.901-137.68-39.875-178.513Z" fill="#28170B" opacity=".75" mask="url(#c)"/>
  <path d="M128.747 54.005c-10.985 5.495 0 27.466 0 27.466C95.774 108.954 102.78 155.9 64.312 155.9c-20.97 0-42.242-24.077-64.233-38.828-.283 3.479-.785 6.972-.785 10.524 0 48.095 26.263 89.924 65.42 111.897 10.952-1.38 22.838-4.114 31.05-9.592 43.146-28.765 53.857-83.491 71.487-109.925 10.979-16.492 62.434-15.061 65.906-22.01 5.502-10.991-10.99-27.467-16.491-27.467h-43.958c-3.071 0-7.897-5.456-10.974-5.456h-16.492s-7.307-11.085-13.794-11.526c-.93-.066-1.83.053-2.7.488Z" fill="#FFF" mask="url(#c)"/>
</svg>
